!!!OTL: Taiyang dang ding zheng dang zhong
!!!ARE: Asia, China,ÿSichuan, Xiushan
!! II, 238
!!!SCT: C1502
!!!YEM: Copyright 1995, estate of Helmut Schaffrath.
**kern
*ICvox
*Ivox
*M2/4
*k[b-e-]
*B-:
{8ff
8ff
=1
4.bb-
8ccc
=2
8fff
8ccc
8eee-
8ccc
=3
4bb-
8fff
16ccc
16eee-
=4
4.fff
16eee-
16fff
=5
16fff
8.ccc
16bb-
16gg
16ff
16r}
=6
{8ff
8ff
8fff
8fff
=7
8ddd
8fff
8ddd
8ccc
=8
8fff
16ccc
16ddd
8fff
8ddd
=9
4.ccc
8bb-
=10
8eee-
16ccc
16ddd
16ccc
16bb-
16gg
16ff}
=11
{4r
8ff
8ff
=12
4.bb-
8ccc
=13
8ff
8gg
4ff
=14
4ccc
8fff
16ccc
16eee-
=15
4.fff
16eee-
16fff
=16
16fff
8eee-
16ccc
16bb-
16gg
16ff
16r}
=17
{8fff
16ccc
16ddd
8fff
8fff
=18
8fff
8fff
8ddd
8ccc
=19
8fff
16ccc
16ddd
8fff
8ddd
=20
4.ccc
8bb-}
=21
{8eee-
16ccc
16ddd
8.bb-
16gg}
==
!!!AGN: Shange
!!!AMT: simple duple
!!!AIN: vox
!!!EED: Helmut Schaffrath
!!!EEV: 1.0
*-
